src/images/icons.svg

<svg aria-hidden="true" style="position: absolute; width: 0; height: 0; overflow: hidden;" version="1.1" xmlns="http://www.w3.org/2000/svg" xmlns:xlink="http://www.w3.org/1999/xlink">
  <defs>
    <symbol id="icon-trash" viewBox="0 0 32 32">
      <path stroke-linejoin="round" stroke-linecap="round" stroke-miterlimit="4" stroke-width="2.6" d="M21.333 8v-1.067c0-1.493 0-2.24-0.291-2.811-0.256-0.502-0.664-0.91-1.165-1.165-0.57-0.291-1.317-0.291-2.811-0.291h-2.133c-1.493 0-2.24 0-2.811 0.291-0.502 0.256-0.91 0.664-1.165 1.165-0.291 0.57-0.291 1.317-0.291 2.811v1.067M13.333 15.333v6.667M18.667 15.333v6.667M4 8h24M25.333 8v14.933c0 2.24 0 3.36-0.436 4.216-0.384 0.753-0.995 1.365-1.748 1.748-0.856 0.436-1.976 0.436-4.216 0.436h-5.867c-2.24 0-3.36 0-4.216-0.436-0.753-0.383-1.365-0.995-1.748-1.748-0.436-0.856-0.436-1.976-0.436-4.216v-14.933"></path>
    </symbol>
    <symbol id="icon-arrow" viewBox="0 0 32 32">
      <path stroke-linejoin="round" stroke-linecap="round" stroke-miterlimit="4" stroke-width="2.6" d="M15 28l13-13M28 15l-13-13M28 15h-26"></path>
    </symbol>
    <symbol id="icon-star" viewBox="0 0 32 32">
      <path d="M13.826 3.262c0.684-2.106 3.663-2.106 4.348 0l1.932 5.945c0.306 0.942 1.184 1.579 2.174 1.579h6.251c2.214 0 3.135 2.833 1.344 4.135l-5.057 3.674c-0.801 0.582-1.136 1.614-0.83 2.556l1.931 5.945c0.684 2.106-1.726 3.857-3.517 2.555l-5.057-3.674c-0.801-0.582-1.886-0.582-2.687 0l-5.057 3.674c-1.791 1.302-4.202-0.45-3.517-2.555l1.932-5.945c0.306-0.942-0.029-1.973-0.83-2.556l-5.057-3.674c-1.791-1.302-0.871-4.135 1.344-4.135h6.251c0.99 0 1.868-0.638 2.174-1.579l1.932-5.945z"></path>
    </symbol>

    <symbol id="icon-x" viewBox="0 0 32 32">
      <path d="M2.283 31.788c-0.54 0-1.079-0.206-1.49-0.617-0.823-0.823-0.823-2.157 0-2.98l27.398-27.398c0.823-0.823 2.158-0.823 2.98 0 0.823 0.823 0.823 2.157 0 2.98l-27.398 27.398c-0.411 0.411-0.95 0.617-1.49 0.617z"></path>
      <path d="M29.681 31.788c-0.539 0-1.079-0.206-1.49-0.617l-27.398-27.398c-0.823-0.823-0.823-2.157 0-2.98s2.158-0.823 2.98 0l27.398 27.398c0.823 0.823 0.823 2.157 0 2.98-0.412 0.412-0.951 0.618-1.49 0.618z"></path>
    </symbol>

    <symbol id="icon-search" viewBox="0 0 32 32">
      <path stroke-linejoin="round" stroke-linecap="round" stroke-miterlimit="4" stroke-width="2.6667" d="M14.667 25.333c5.891 0 10.667-4.776 10.667-10.667s-4.776-10.667-10.667-10.667c-5.891 0-10.667 4.776-10.667 10.667s4.776 10.667 10.667 10.667z"></path>
      <path stroke-linejoin="round" stroke-linecap="round" stroke-miterlimit="4" stroke-width="2.6667" d="M28 28l-5.8-5.8"></path>
    </symbol>

    <symbol viewBox="0 0 28 28" id="instagram">
      <g opacity="0.8">
        <path d="M25.1279 9.41127C25.1142 8.47121 24.9401 7.5386 24.6067 6.65939C24.0233 5.15803 22.8354 3.97084 21.3315 3.38967C20.4621 3.06307 19.5428 2.88797 18.6124 2.86811C17.4158 2.81471 17.0364 2.7998 13.9988 2.7998C10.9612 2.7998 10.5719 2.7998 9.38397 2.86811C8.45478 2.88797 7.53554 3.06307 6.66606 3.38967C5.1622 3.97084 3.97304 5.15803 3.3909 6.65939C3.06375 7.52743 2.88712 8.44513 2.86971 9.37277C2.81622 10.5687 2.80005 10.9474 2.80005 13.9799C2.80005 17.0125 2.80005 17.3999 2.86971 18.5871C2.88837 19.516 3.06375 20.4325 3.3909 21.303C3.97428 22.8031 5.1622 23.9903 6.66731 24.5714C7.53306 24.9092 8.45229 25.1005 9.38521 25.1303C10.5831 25.1837 10.9625 25.1998 14.0001 25.1998C17.0376 25.1998 17.427 25.1998 18.6149 25.1303C19.5441 25.1116 20.4633 24.9365 21.334 24.6099C22.8379 24.0275 24.0258 22.8403 24.6092 21.3402C24.9363 20.4709 25.1117 19.5545 25.1304 18.6244C25.1839 17.4297 25.2001 17.051 25.2001 14.0172C25.1976 10.9847 25.1976 10.5997 25.1279 9.41127ZM13.9913 19.7147C10.8144 19.7147 8.24083 17.1453 8.24083 13.9737C8.24083 10.8021 10.8144 8.23278 13.9913 8.23278C17.1658 8.23278 19.7419 10.8021 19.7419 13.9737C19.7419 17.1453 17.1658 19.7147 13.9913 19.7147ZM19.9707 9.35911C19.2281 9.35911 18.6298 8.76056 18.6298 8.02043C18.6298 7.2803 19.2281 6.68174 19.9707 6.68174C20.7108 6.68174 21.3104 7.2803 21.3104 8.02043C21.3104 8.76056 20.7108 9.35911 19.9707 9.35911Z"></path>
        <path d="M13.993 17.4792C15.9279 17.4792 17.4965 15.9106 17.4965 13.9757C17.4965 12.0407 15.9279 10.4722 13.993 10.4722C12.0581 10.4722 10.4895 12.0407 10.4895 13.9757C10.4895 15.9106 12.0581 17.4792 13.993 17.4792Z"></path>
      </g>
    </symbol>

    <symbol viewBox="0 0 28 28" id="youtube">
      <g opacity="0.8">
        <path fill-rule="evenodd" clip-rule="evenodd" d="M21.2101 5.24986C20.0201 5.17986 17.5701 5.10986 13.8601 5.10986H13.3701C9.8001 5.10986 7.42013 5.17986 6.23013 5.31986C4.62013 5.45986 3.5001 5.87986 2.8701 6.43986C2.3101 6.92986 1.89012 7.83986 1.75012 9.02986C1.68012 9.79986 1.61011 11.4099 1.61011 13.8599V14.2099C1.61011 16.5199 1.6801 18.1299 1.8201 18.8999C2.0301 20.0199 2.38013 20.8599 3.08013 21.3499C3.78013 21.9099 4.97012 22.2599 6.65012 22.3999C7.84012 22.4699 10.2901 22.5399 14.0001 22.5399H14.4901C18.0601 22.5399 20.4401 22.4699 21.6301 22.3299C23.2401 22.1899 24.3601 21.7699 24.9901 21.2099C25.5501 20.7199 25.9701 19.8099 26.1101 18.6199C26.1801 17.8499 26.2501 16.2399 26.2501 13.7899V13.4399C26.2501 11.1299 26.1801 9.51986 26.0401 8.74986C25.8301 7.62986 25.4801 6.78986 24.7801 6.29986C24.0801 5.73986 22.8901 5.38986 21.2101 5.24986ZM18.4801 13.8599L10.7801 18.4799V9.23986L18.4801 13.8599Z" />
      </g>
    </symbol>

    <symbol viewBox="0 0 28 28" id="facebook">
      <g opacity="0.8">
        <path d="M17.0799 4.06023C17.2899 4.06023 17.4999 4.06023 17.9199 4.06023V7.21023C17.7099 7.21023 17.2899 7.21023 16.8699 7.21023C16.4499 7.21023 16.0299 7.21023 15.8199 7.42023C15.6099 7.63023 15.6099 7.84023 15.6099 8.33023C15.6099 8.75023 15.6099 9.03023 15.6099 9.45023H17.9199V12.1102H15.6099V23.6602H12.0399V12.0402H10.1499V9.38023H12.0399V8.47023C12.0399 6.93023 12.2499 5.81023 12.6699 5.32023C13.2999 4.41023 14.5599 3.99023 16.4499 3.99023C16.6599 4.06023 16.8699 4.06023 17.0799 4.06023Z"></path>
      </g>
    </symbol>

    <symbol id="logo" viewBox="0 0 132 24">
      <path d="M4.98 13.28L0 5H2.98L6.32 10.74H6.36L9.7 5H12.68L7.7 13.28V19H4.98V13.28Z" />
      <path d="M12.6703 16.7V7.3L14.9703 5H22.1703L24.4703 7.3V16.7L22.1703 19H14.9703L12.6703 16.7ZM20.7303 16.68L21.7503 15.66V8.34L20.7303 7.32H16.4103L15.3903 8.34V15.66L16.4103 16.68H20.7303Z" />
      <path d="M26.3742 16.6V5H29.0942V15.66L30.1142 16.68H34.0342L35.0542 15.66V5H37.7742V16.6L35.3742 19H28.7742L26.3742 16.6Z" />
      <path d="M50.8781 14.36V19H48.1581V14.98L46.9581 13.64H42.5981V19H39.8781V5H48.6581L50.7981 7.16V11.4L49.4381 12.78L50.8781 14.36ZM42.5981 11.4H47.4181L48.1181 10.7V7.98L47.4181 7.28H42.5981V11.4Z" />
      <path d="M57.8234 5H67.9434V7.3H60.5434V10.84H67.3634V13.1H60.5434V16.7H67.9434V19H57.8234V5Z" />
      <path d="M69.4523 5H71.8923L78.1323 14.5H78.1723V5H80.7923V19H78.3523L72.1123 9.52H72.0723V19H69.4523V5Z" />
      <path d="M82.8977 5H93.0177V7.3H85.6177V10.84H92.4377V13.1H85.6177V16.7H93.0177V19H82.8977V5Z" />
      <path d="M105.527 14.36V19H102.807V14.98L101.607 13.64H97.2466V19H94.5266V5H103.307L105.447 7.16V11.4L104.087 12.78L105.527 14.36ZM97.2466 11.4H102.067L102.767 10.7V7.98L102.067 7.28H97.2466V11.4Z" />
      <path d="M107.323 16.7V7.3L109.623 5H116.583L118.843 7.26V9.4H116.123V8.26L115.183 7.32H111.063L110.043 8.34V15.66L111.063 16.68H115.223L116.203 15.7V13.52H113.203V11.2H118.843V16.7L116.543 19H109.623L107.323 16.7Z" />
      <path d="M123.828 13.28L118.848 5H121.828L125.168 10.74H125.208L128.548 5H131.528L126.548 13.28V19H123.828V13.28Z" />
    </symbol>
    <symbol id="icon-burger" viewBox="0 0 32 32">
      <path stroke-linejoin="round" stroke-linecap="round" stroke-miterlimit="4" stroke-width="2" d="M28 13.333h-24"></path>
      <path stroke-linejoin="round" stroke-linecap="round" stroke-miterlimit="4" stroke-width="2" d="M28 8h-24"></path>
      <path stroke-linejoin="round" stroke-linecap="round" stroke-miterlimit="4" stroke-width="2" d="M28 18.667h-24"></path>
      <path stroke-linejoin="round" stroke-linecap="round" stroke-miterlimit="4" stroke-width="2" d="M28 24h-24"></path>
    </symbol>
    <symbol id="icon-cross" viewBox="0 0 32 32">
      <path stroke-linejoin="round" stroke-linecap="round" stroke-miterlimit="4" stroke-width="2" d="M24 8l-16 16"></path>
      <path stroke-linejoin="round" stroke-linecap="round" stroke-miterlimit="4" stroke-width="2" d="M8 8l16 16"></path>
    </symbol>
  </defs>
</svg>

<svg aria-hidden="true" style="position:absolute;width:0;height:0;overflow:hidden" xmlns="http://www.w3.org/2000/svg"><defs><symbol id="icon-search" viewBox="0 0 32 32"><path stroke-linejoin="round" stroke-linecap="round" stroke-width="2.667" d="M14.667 25.333c5.891 0 10.667-4.776 10.667-10.667S20.558 3.999 14.667 3.999 4 8.775 4 14.666s4.776 10.667 10.667 10.667zM28 28l-5.8-5.8"/></symbol><symbol viewBox="0 0 28 28" id="instagram"><g opacity=".8"><path d="M25.128 9.411a8.096 8.096 0 0 0-.521-2.752 5.73 5.73 0 0 0-3.276-3.27 8.229 8.229 0 0 0-2.719-.52c-1.196-.054-1.576-.07-4.613-.07-3.038 0-3.427 0-4.615.07-.93.019-1.848.194-2.718.52a5.726 5.726 0 0 0-3.275 3.27 8.127 8.127 0 0 0-.521 2.714c-.054 1.196-.07 1.574-.07 4.607 0 3.032 0 3.42.07 4.607.018.929.194 1.846.52 2.716a5.729 5.729 0 0 0 3.277 3.268 8.2 8.2 0 0 0 2.718.56c1.198.053 1.578.069 4.615.069 3.038 0 3.427 0 4.615-.07a8.21 8.21 0 0 0 2.719-.52 5.736 5.736 0 0 0 3.275-3.27c.327-.87.503-1.785.521-2.716.054-1.194.07-1.573.07-4.607-.002-3.032-.002-3.417-.072-4.606zM13.99 19.715a5.745 5.745 0 0 1-5.75-5.741 5.744 5.744 0 0 1 5.75-5.741c3.175 0 5.75 2.57 5.75 5.74a5.746 5.746 0 0 1-5.75 5.742zm5.98-10.356a1.338 1.338 0 1 1 0-2.677 1.339 1.339 0 1 1 0 2.677z"/><path d="M13.993 17.48a3.504 3.504 0 1 0 0-7.008 3.504 3.504 0 0 0 0 7.007z"/></g></symbol><symbol viewBox="0 0 28 28" id="youtube"><path fill-rule="evenodd" clip-rule="evenodd" d="M21.21 5.25c-1.19-.07-3.64-.14-7.35-.14h-.49c-3.57 0-5.95.07-7.14.21-1.61.14-2.73.56-3.36 1.12-.56.49-.98 1.4-1.12 2.59-.07.77-.14 2.38-.14 4.83v.35c0 2.31.07 3.92.21 4.69.21 1.12.56 1.96 1.26 2.45.7.56 1.89.91 3.57 1.05 1.19.07 3.64.14 7.35.14h.49c3.57 0 5.95-.07 7.14-.21 1.61-.14 2.73-.56 3.36-1.12.56-.49.98-1.4 1.12-2.59.07-.77.14-2.38.14-4.83v-.35c0-2.31-.07-3.92-.21-4.69-.21-1.12-.56-1.96-1.26-2.45-.7-.56-1.89-.91-3.57-1.05zm-2.73 8.61-7.7 4.62V9.24l7.7 4.62z" opacity=".8"/></symbol><symbol viewBox="0 0 28 28" id="facebook"><path d="M17.08 4.06h.84v3.15h-1.05c-.42 0-.84 0-1.05.21-.21.21-.21.42-.21.91v1.12h2.31v2.66h-2.31v11.55h-3.57V12.04h-1.89V9.38h1.89v-.91c0-1.54.21-2.66.63-3.15.63-.91 1.89-1.33 3.78-1.33.21.07.42.07.63.07z" opacity=".8"/></symbol><symbol id="logo" viewBox="0 0 132 24"><path d="M4.98 13.28 0 5h2.98l3.34 5.74h.04L9.7 5h2.98L7.7 13.28V19H4.98v-5.72zM12.67 16.7V7.3l2.3-2.3h7.2l2.3 2.3v9.4l-2.3 2.3h-7.2l-2.3-2.3zm8.06-.02 1.02-1.02V8.34l-1.02-1.02h-4.32l-1.02 1.02v7.32l1.02 1.02h4.32zM26.374 16.6V5h2.72v10.66l1.02 1.02h3.92l1.02-1.02V5h2.72v11.6l-2.4 2.4h-6.6l-2.4-2.4zM50.878 14.36V19h-2.72v-4.02l-1.2-1.34h-4.36V19h-2.72V5h8.78l2.14 2.16v4.24l-1.36 1.38 1.44 1.58zm-8.28-2.96h4.82l.7-.7V7.98l-.7-.7h-4.82v4.12zM57.823 5h10.12v2.3h-7.4v3.54h6.82v2.26h-6.82v3.6h7.4V19h-10.12V5zM69.452 5h2.44l6.24 9.5h.04V5h2.62v14h-2.44l-6.24-9.48h-.04V19h-2.62V5zM82.898 5h10.12v2.3h-7.4v3.54h6.82v2.26h-6.82v3.6h7.4V19h-10.12V5zM105.527 14.36V19h-2.72v-4.02l-1.2-1.34h-4.36V19h-2.72V5h8.78l2.14 2.16v4.24l-1.36 1.38 1.44 1.58zm-8.28-2.96h4.82l.7-.7V7.98l-.7-.7h-4.82v4.12zM107.323 16.7V7.3l2.3-2.3h6.96l2.26 2.26V9.4h-2.72V8.26l-.94-.94h-4.12l-1.02 1.02v7.32l1.02 1.02h4.16l.98-.98v-2.18h-3V11.2h5.64v5.5l-2.3 2.3h-6.92l-2.3-2.3zM123.828 13.28 118.848 5h2.98l3.34 5.74h.04l3.34-5.74h2.98l-4.98 8.28V19h-2.72v-5.72z"/></symbol></defs></svg>
